src/gui/emoticons/lips.svg

<svg xmlns="http://www.w3.org/2000/svg" xmlns:xlink="http://www.w3.org/1999/xlink" width="16pt" height="16pt" version="1.1" viewBox="0 0 16 16"><defs><linearGradient id="linear0" x1="64" x2="64" y1="38.902" y2="103.02" gradientTransform="matrix(0.125,0,0,0.125,0,0)" gradientUnits="userSpaceOnUse"><stop offset="0" style="stop-color:#e91e63;stop-opacity:1"/><stop offset=".76" style="stop-color:#f06292;stop-opacity:1"/></linearGradient><linearGradient id="linear1" x1="63.938" x2="63.938" y1="43.543" y2="60.137" gradientTransform="matrix(0.125,0,0,0.125,0,0)" gradientUnits="userSpaceOnUse"><stop offset=".107" style="stop-color:#e0e0e0;stop-opacity:1"/><stop offset=".455" style="stop-color:#fafafa;stop-opacity:1"/></linearGradient><clipPath id="clip1"><path d="M 2 6 L 14 6 L 14 10 L 2 10 Z M 2 6"/></clipPath><clipPath id="clip2"><path d="M 7.984375 9.542969 C 4.074219 9.542969 2.226562 8.730469 2.226562 8.730469 C 2.226562 8.730469 4.765625 5.414062 7.984375 5.414062 C 11.203125 5.414062 13.761719 8.71875 13.761719 8.71875 C 13.761719 8.71875 11.894531 9.542969 7.984375 9.542969 Z M 7.984375 9.542969"/></clipPath><linearGradient id="linear2" x1="63.994" x2="63.994" y1="50.542" y2="72.417" gradientTransform="matrix(0.125,0,0,0.125,0,0)" gradientUnits="userSpaceOnUse"><stop offset=".545" style="stop-color:#632627;stop-opacity:1"/><stop offset=".893" style="stop-color:#522627;stop-opacity:1"/></linearGradient><filter id="alpha" width="100%" height="100%" x="0%" y="0%" filterUnits="objectBoundingBox"><feColorMatrix in="SourceGraphic" type="matrix" values="0 0 0 0 1 0 0 0 0 1 0 0 0 0 1 0 0 0 1 0"/></filter><mask id="mask0"><g filter="url(#alpha)"><rect width="16" height="16" x="0" y="0" style="fill:#000;fill-opacity:.2;stroke:none"/></g></mask><clipPath id="clip3"><rect width="16" height="16"/></clipPath><g id="surface6" clip-path="url(#clip3)"><path style="stroke:none;fill-rule:nonzero;fill:#424242;fill-opacity:1" d="M 9.558594 3.925781 C 9.992188 3.925781 11.019531 4.265625 13.019531 6.527344 C 13.847656 7.460938 14.554688 8.410156 14.90625 8.894531 C 14.542969 9.109375 13.941406 9.507812 13.148438 10.140625 C 13.003906 10.257812 12.851562 10.382812 12.695312 10.515625 C 11.605469 11.433594 10.246094 12.574219 8.015625 12.574219 C 5.394531 12.574219 4.175781 11.429688 3.097656 10.417969 C 3.003906 10.328125 2.910156 10.242188 2.816406 10.15625 C 2.144531 9.539062 1.488281 9.097656 1.09375 8.855469 C 1.453125 8.375 2.167969 7.445312 3 6.519531 C 5.027344 4.277344 6.042969 3.941406 6.464844 3.941406 C 7.054688 3.941406 7.390625 4.152344 7.566406 4.328125 C 7.6875 4.453125 7.855469 4.523438 8.027344 4.523438 C 8.191406 4.523438 8.347656 4.460938 8.46875 4.351562 C 8.683594 4.15625 9.042969 3.925781 9.558594 3.925781 M 9.558594 3.550781 C 8.902344 3.550781 8.453125 3.855469 8.21875 4.078125 C 8.164062 4.125 8.097656 4.148438 8.03125 4.148438 C 7.960938 4.148438 7.890625 4.121094 7.832031 4.066406 C 7.621094 3.851562 7.203125 3.566406 6.46875 3.566406 C 4.382812 3.566406 0.546875 8.972656 0.546875 8.972656 C 0.546875 8.972656 1.542969 9.488281 2.566406 10.429688 C 3.699219 11.472656 5.003906 12.949219 8.015625 12.949219 C 10.722656 12.949219 12.230469 11.359375 13.386719 10.429688 C 14.675781 9.398438 15.453125 9.015625 15.453125 9.015625 C 15.453125 9.015625 11.695312 3.550781 9.558594 3.550781 Z M 9.558594 3.550781"/></g><mask id="mask1"><g filter="url(#alpha)"><rect width="16" height="16" x="0" y="0" style="fill:#000;fill-opacity:.2;stroke:none"/></g></mask><clipPath id="clip4"><rect width="16" height="16"/></clipPath><g id="surface9" clip-path="url(#clip4)"><path style="stroke:none;fill-rule:nonzero;fill:#424242;fill-opacity:1" d="M 7.984375 5.789062 C 10.324219 5.789062 12.332031 7.695312 13.113281 8.546875 C 12.894531 8.613281 12.597656 8.691406 12.226562 8.769531 C 11.378906 8.953125 9.953125 9.167969 7.984375 9.167969 C 5.332031 9.167969 3.640625 8.785156 2.871094 8.554688 C 3.644531 7.699219 5.648438 5.789062 7.984375 5.789062 M 7.984375 5.414062 C 4.765625 5.414062 2.226562 8.730469 2.226562 8.730469 C 2.226562 8.730469 4.074219 9.542969 7.984375 9.542969 C 11.894531 9.542969 13.757812 8.71875 13.757812 8.71875 C 13.757812 8.71875 11.203125 5.414062 7.984375 5.414062 Z M 7.984375 5.414062"/></g></defs><g id="surface1"><path style="stroke:none;fill-rule:nonzero;fill:url(#linear0)" d="M 8.015625 12.949219 C 5.003906 12.949219 3.699219 11.472656 2.566406 10.429688 C 1.542969 9.488281 0.546875 8.972656 0.546875 8.972656 C 0.546875 8.972656 4.382812 3.566406 6.46875 3.566406 C 7.203125 3.566406 7.621094 3.851562 7.832031 4.066406 C 7.9375 4.171875 8.109375 4.175781 8.21875 4.078125 C 8.457031 3.855469 8.902344 3.550781 9.558594 3.550781 C 11.695312 3.550781 15.453125 9.015625 15.453125 9.015625 C 15.453125 9.015625 14.675781 9.398438 13.386719 10.429688 C 12.230469 11.359375 10.722656 12.949219 8.015625 12.949219 Z M 8.015625 12.949219"/><path style="stroke:none;fill-rule:nonzero;fill:url(#linear1)" d="M 7.984375 9.542969 C 4.074219 9.542969 2.226562 8.730469 2.226562 8.730469 C 2.226562 8.730469 4.765625 5.414062 7.984375 5.414062 C 11.203125 5.414062 13.761719 8.71875 13.761719 8.71875 C 13.761719 8.71875 11.894531 9.542969 7.984375 9.542969 Z M 7.984375 9.542969"/><g clip-path="url(#clip1)" clip-rule="nonzero"><g clip-path="url(#clip2)" clip-rule="nonzero"><path style="stroke:none;fill-rule:nonzero;fill:url(#linear2)" d="M 15.796875 10.226562 C 15.796875 12.816406 12.304688 14.914062 8 14.914062 C 3.695312 14.914062 0.203125 12.816406 0.203125 10.226562 C 0.203125 8.84375 4.027344 6.746094 4.027344 6.746094 C 4.027344 6.746094 5.054688 7.195312 8 7.195312 C 10.941406 7.195312 12.035156 6.777344 12.035156 6.777344 C 12.035156 6.777344 15.796875 8.863281 15.796875 10.226562 Z M 15.796875 10.226562"/></g></g><use mask="url(#mask0)" xlink:href="#surface6"/><use mask="url(#mask1)" xlink:href="#surface9"/></g></svg>

<svg xmlns="http://www.w3.org/2000/svg" xmlns:xlink="http://www.w3.org/1999/xlink" width="16pt" height="16pt" viewBox="0 0 16 16"><defs><clipPath id="f"><path d="M2 6h12v4H2Zm0 0"/></clipPath><clipPath id="g"><path d="M7.984 9.543c-3.91 0-5.757-.813-5.757-.813s2.539-3.316 5.757-3.316c3.22 0 5.778 3.305 5.778 3.305s-1.867.824-5.778.824m0 0"/></clipPath><clipPath id="b"><path d="M0 0h16v16H0z"/></clipPath><clipPath id="c"><path d="M0 0h16v16H0z"/></clipPath><linearGradient id="d" x1="64" x2="64" y1="38.902" y2="103.02" gradientTransform="scale(.125)" gradientUnits="userSpaceOnUse"><stop offset="0" style="stop-color:#e91e63;stop-opacity:1"/><stop offset=".76" style="stop-color:#f06292;stop-opacity:1"/></linearGradient><linearGradient id="e" x1="63.938" x2="63.938" y1="43.543" y2="60.137" gradientTransform="scale(.125)" gradientUnits="userSpaceOnUse"><stop offset=".107" style="stop-color:#e0e0e0;stop-opacity:1"/><stop offset=".455" style="stop-color:#fafafa;stop-opacity:1"/></linearGradient><linearGradient id="h" x1="63.994" x2="63.994" y1="50.542" y2="72.417" gradientTransform="scale(.125)" gradientUnits="userSpaceOnUse"><stop offset=".545" style="stop-color:#632627;stop-opacity:1"/><stop offset=".893" style="stop-color:#522627;stop-opacity:1"/></linearGradient><mask id="i"><g filter="url(#a)"><path d="M0 0h16v16H0z" style="fill:#000;fill-opacity:.2;stroke:none"/></g></mask><mask id="k"><g filter="url(#a)"><path d="M0 0h16v16H0z" style="fill:#000;fill-opacity:.2;stroke:none"/></g></mask><g id="j" clip-path="url(#b)"><path d="M9.559 3.926c.433 0 1.46.34 3.46 2.601a32 32 0 0 1 1.887 2.368c-.363.214-.965.613-1.758 1.246q-.217.176-.453.375c-1.09.918-2.449 2.058-4.68 2.058-2.62 0-3.84-1.144-4.917-2.156q-.141-.134-.282-.262a11.5 11.5 0 0 0-1.722-1.3C1.454 8.374 2.168 7.445 3 6.52 5.027 4.277 6.043 3.94 6.465 3.94c.59 0 .926.211 1.101.387a.645.645 0 0 0 .903.024 1.6 1.6 0 0 1 1.09-.426m0-.375c-.657 0-1.106.304-1.34.527a.3.3 0 0 1-.188.07.3.3 0 0 1-.199-.082c-.21-.214-.629-.5-1.363-.5-2.086 0-5.922 5.407-5.922 5.407s.996.515 2.02 1.457c1.132 1.043 2.437 2.52 5.449 2.52 2.707 0 4.214-1.59 5.37-2.52 1.29-1.032 2.067-1.414 2.067-1.414S11.695 3.55 9.56 3.55m0 0" style="stroke:none;fill-rule:nonzero;fill:#424242;fill-opacity:1"/></g><g id="l" clip-path="url(#c)"><path d="M7.984 5.79c2.34 0 4.348 1.905 5.13 2.757-.22.066-.516.144-.887.223-.848.183-2.274.398-4.243.398-2.652 0-4.343-.383-5.113-.613.774-.856 2.777-2.766 5.113-2.766m0-.375c-3.218 0-5.757 3.316-5.757 3.316s1.847.813 5.757.813 5.774-.824 5.774-.824-2.555-3.305-5.774-3.305m0 0" style="stroke:none;fill-rule:nonzero;fill:#424242;fill-opacity:1"/></g><filter id="a" width="100%" height="100%" x="0%" y="0%" filterUnits="objectBoundingBox"><feColorMatrix in="SourceGraphic" values="0 0 0 0 1 0 0 0 0 1 0 0 0 0 1 0 0 0 1 0"/></filter></defs><path d="M8.016 12.95c-3.012 0-4.317-1.477-5.45-2.52C1.543 9.488.546 8.973.546 8.973S4.384 3.566 6.47 3.566c.734 0 1.152.286 1.363.5.106.106.277.11.387.012a1.94 1.94 0 0 1 1.34-.527c2.136 0 5.894 5.465 5.894 5.465s-.777.382-2.066 1.414c-1.157.93-2.664 2.52-5.371 2.52m0 0" style="stroke:none;fill-rule:nonzero;fill:url(#d)"/><path d="M7.984 9.543c-3.91 0-5.757-.813-5.757-.813s2.539-3.316 5.757-3.316c3.22 0 5.778 3.305 5.778 3.305s-1.867.824-5.778.824m0 0" style="stroke:none;fill-rule:nonzero;fill:url(#e)"/><g clip-path="url(#f)"><g clip-path="url(#g)"><path d="M15.797 10.227c0 2.59-3.492 4.687-7.797 4.687S.203 12.816.203 10.227c0-1.383 3.824-3.48 3.824-3.48s1.028.448 3.973.448c2.941 0 4.035-.418 4.035-.418s3.762 2.086 3.762 3.45m0 0" style="stroke:none;fill-rule:nonzero;fill:url(#h)"/></g></g><use xlink:href="#j" mask="url(#i)"/><use xlink:href="#l" mask="url(#k)"/></svg>
